X:54
T:Farnaught Jig*, The
C:source Grier MS
F:file ID: cre.4/054farn
B:CRE4.001 (gan ainm, no repeats)
Q:160
L:1/8
M:6/8
R:jig
K:G
D|G3 GBG|GEG GBG|G2F GBd|cAA ABc|
"5"BAG GBG|GEG GBG|G2F GBd|cAF G2 :|
c|"9"BGB d2c|BGB d2B|cAA A2B|cAA Adc|
"13"BBB cAc|BAG GED|DB,D G2A|BGG G2 :|
d|"17"g2d dBG|g2 d dBG|BAG BdG|BAA A2d|
"21"g2d dBG|g2d dBG|GBF GED|EGG G2 :|

%%%

